dist/images/icons/logo.svg

<svg width="143" height="52" viewBox="0 0 143 52" fill="none" xmlns="http://www.w3.org/2000/svg">
<path fill-rule="evenodd" clip-rule="evenodd" d="M45.2582 31.0319V14.6172L55.3691 24.3223C55.9709 24.9213 56.5727 25.5204 57.0542 26.2393V15.3361H59.4616V31.7508L49.2303 21.9259C48.6285 21.3269 48.147 20.8476 47.6655 20.1287V31.1518H45.2582V31.0319ZM130.238 31.0319L135.414 22.7647L130.84 15.2163H133.488L135.775 19.0504C136.136 19.5296 136.376 20.1287 136.617 20.608C136.858 20.1287 137.219 19.5296 137.46 19.0504L139.867 15.2163H142.515L137.821 22.7647L142.756 31.0319H139.867L137.219 26.5988C136.978 26.1195 136.617 25.5204 136.376 25.0412C136.136 25.5204 135.775 26.1195 135.534 26.5988L132.765 31.1518H130.238V31.0319ZM116.877 31.0319V15.3361H125.784V17.4928H119.525V21.4467H125.784V23.7232H119.525V28.7554H125.784V31.0319H116.877ZM105.322 31.7508L98.2199 15.3361H100.868L104.479 23.7232C104.84 24.5619 105.081 25.4006 105.322 26.2393C105.562 25.4006 105.803 24.5619 106.164 23.7232L109.655 15.3361H112.303L105.322 31.7508ZM84.2573 28.7554H86.4239C88.9516 28.7554 90.9979 28.396 91.9608 25.76C92.2016 25.0412 92.4423 24.0826 92.4423 23.1241C92.4423 22.1656 92.3219 21.2071 91.9608 20.4882C90.8775 17.7324 88.7109 17.4928 86.0628 17.4928H84.2573V28.7554ZM81.6092 31.0319V15.3361H85.0999C88.9516 15.3361 92.683 15.4559 94.3682 19.5296C94.8496 20.608 95.0904 21.9259 95.0904 23.2439C95.0904 24.6817 94.8496 25.8799 94.3682 26.9582C92.683 30.7923 89.4331 31.1518 85.8221 31.1518H81.6092V31.0319ZM66.4429 31.0319V15.3361H75.3501V17.4928H69.091V21.4467H75.3501V23.7232H69.091V28.7554H75.3501V31.0319H66.4429Z" fill="white"/>
<path fill-rule="evenodd" clip-rule="evenodd" d="M30.8141 51.8802H28.8882V40.4977C29.129 40.2581 29.3697 40.1382 29.4901 39.8986V24.3226C29.7308 23.8433 29.9715 23.3641 30.0919 22.8848V0H30.6937V51.8802H30.8141ZM26.2401 29.7143C26.4809 29.3548 26.7216 29.1152 26.842 28.7558V12.2212C27.0827 11.6221 27.3235 11.023 27.4438 10.424V52H25.5179V43.0138C25.7587 42.894 25.9994 42.7742 26.1198 42.5346V29.7143H26.2401ZM23.1106 33.5484C23.3513 33.3088 23.5921 33.0691 23.7124 32.8295V19.4101C23.9532 18.9309 24.1939 18.5714 24.3143 18.0922V51.8802H22.3884V44.6912C22.6291 44.5714 22.8698 44.4516 22.9902 44.3318V33.5484H23.1106ZM19.8607 36.6636C20.1014 36.424 20.3421 36.3041 20.4625 36.0645V25.0415C20.7032 24.682 20.944 24.3226 21.0643 23.9631V51.8802H19.2588V46.129C19.4996 46.0092 19.7403 46.0092 19.8607 45.8894V36.6636ZM16.7311 39.1797C16.9718 39.0599 17.2126 38.8203 17.3329 38.7005V29.7143C17.5737 29.4747 17.8144 29.1152 17.9348 28.8756V52H16.0089V47.447C16.2496 47.3272 16.4904 47.3272 16.6107 47.2074V39.1797H16.7311ZM13.4812 41.3364C13.7219 41.2166 13.9626 41.0968 14.083 40.8571V33.5484C14.3237 33.3088 14.5645 33.0691 14.6848 32.8295V51.8802H12.759V48.1659C12.9997 48.1659 13.2404 48.0461 13.3608 48.0461V41.3364H13.4812ZM10.2312 43.2535C10.472 43.1336 10.7127 43.0138 10.8331 42.894V36.9032C11.0738 36.6636 11.3146 36.424 11.4349 36.3041C11.4349 41.576 11.4349 46.7281 11.4349 52H9.62941V49.0046C9.87014 49.0046 10.1109 48.8848 10.2312 48.8848V43.2535ZM7.10169 44.8111C7.34242 44.6912 7.58316 44.5714 7.70353 44.4516V39.7788C7.94426 39.5392 8.185 39.4194 8.30537 39.1797C8.30537 43.3733 8.30537 47.5668 8.30537 51.8802H6.37948V49.3641C6.62022 49.3641 6.86095 49.364 6.98132 49.2442V44.8111H7.10169ZM3.85176 46.2488C4.0925 46.129 4.33323 46.129 4.4536 46.0092V42.2949C4.69434 42.1751 4.93507 41.9355 5.05544 41.8157C5.05544 45.1705 5.05544 48.5253 5.05544 51.8802H3.24993V49.7235C3.49066 49.7235 3.7314 49.7235 3.85176 49.7235V46.2488ZM0.601838 47.447C0.842573 47.3272 1.08331 47.3272 1.20368 47.2074V44.3318C1.44441 44.212 1.68515 44.0922 1.80551 43.9723C1.80551 46.6083 1.80551 49.2442 1.80551 51.8802H0V49.8433H0.601838V47.447Z" fill="white"/>
<path fill-rule="evenodd" clip-rule="evenodd" d="M50.434 36.904V38.1021C49.9525 37.6228 49.3507 37.3832 48.6285 37.3832C47.9063 37.3832 47.3044 37.6228 46.9433 38.1021C46.4619 38.5814 46.3415 39.1804 46.3415 39.8993C46.3415 40.6182 46.5822 41.2173 47.0637 41.5768C47.5452 42.056 48.0266 42.2957 48.7488 42.2957C49.3507 42.2957 49.9525 42.056 50.5544 41.5768V42.7749C49.9525 42.8947 49.3507 43.1344 48.6285 43.1344C47.7859 43.1344 46.9433 42.8947 46.3415 42.2957C45.6193 41.6966 45.2582 40.8579 45.2582 39.8993C45.2582 38.821 45.6193 37.9823 46.3415 37.3832C46.9433 36.7841 47.6655 36.5445 48.6285 36.5445C49.3507 36.4247 49.9525 36.5445 50.434 36.904ZM56.9338 37.3832C57.5357 36.7841 58.3782 36.4247 59.3412 36.4247C60.3041 36.4247 61.1467 36.7841 61.7485 37.3832C62.3504 37.9823 62.7115 38.821 62.7115 39.7795C62.7115 40.7381 62.3504 41.5768 61.7485 42.1758C61.1467 42.7749 60.3041 43.1344 59.3412 43.1344C58.3782 43.1344 57.5357 42.7749 56.9338 42.1758C56.332 41.5768 55.9709 40.7381 55.9709 39.7795C55.9709 38.821 56.332 37.9823 56.9338 37.3832ZM57.656 41.4569C58.1375 41.9362 58.619 42.1758 59.3412 42.1758C60.0634 42.1758 60.5449 41.9362 61.0263 41.4569C61.5078 40.9777 61.7485 40.3786 61.7485 39.6597C61.7485 38.9408 61.5078 38.3417 61.0263 37.8625C60.5449 37.3832 60.0634 37.1436 59.3412 37.1436C58.619 37.1436 58.1375 37.3832 57.656 37.8625C57.1746 38.3417 56.9338 38.9408 56.9338 39.6597C56.9338 40.4984 57.1746 41.0975 57.656 41.4569ZM69.5724 43.0146H68.6095V36.1851L73.3038 41.0975V36.6643H74.2668V43.4938L69.5724 38.5814V43.0146ZM84.0166 37.503L83.174 37.9823C83.0536 37.8625 83.0536 37.7427 82.9332 37.6228C82.6925 37.503 82.4518 37.3832 82.211 37.3832C81.9703 37.3832 81.7296 37.503 81.4888 37.6228C81.3685 37.7427 81.2481 37.9823 81.2481 38.2219C81.2481 38.5814 81.4888 38.821 81.9703 39.0606L82.5721 39.3003C83.5351 39.6597 84.1369 40.3786 84.1369 41.2173C84.1369 41.8164 83.8962 42.2957 83.5351 42.6551C83.174 43.0145 82.6925 43.2542 82.0907 43.2542C81.4888 43.2542 81.0074 43.0145 80.5259 42.6551C80.1648 42.2957 80.0444 41.9362 79.9241 41.4569L80.887 41.2173C80.887 41.5768 81.0074 41.8164 81.1277 42.056C81.3685 42.2957 81.6092 42.4155 81.9703 42.4155C82.3314 42.4155 82.5721 42.2957 82.6925 42.1758C82.9332 41.9362 83.0536 41.6966 83.0536 41.3371C83.0536 41.0975 82.9332 40.8579 82.8129 40.6182C82.6925 40.4984 82.4518 40.3786 82.0907 40.2588L81.4888 40.0192C80.6463 39.6597 80.1648 39.0606 80.1648 38.3417C80.1648 37.8625 80.2852 37.503 80.6463 37.1436C81.0074 36.7841 81.4888 36.6643 82.0907 36.6643C82.5721 36.6643 83.0536 36.7841 83.4147 37.1436C83.6555 37.0238 83.8962 37.2634 84.0166 37.503ZM90.0349 36.5445H90.9979V40.3786C90.9979 40.8579 91.1182 41.2173 91.2386 41.4569C91.359 41.6966 91.4793 41.8164 91.7201 41.9362C91.9608 42.056 92.2016 42.1758 92.4423 42.1758C92.683 42.1758 92.9238 42.056 93.1645 41.9362C93.4052 41.8164 93.5256 41.6966 93.646 41.4569C93.7663 41.2173 93.8867 40.8579 93.8867 40.3786V36.5445H94.8496V40.7381C94.8496 41.4569 94.6089 41.9362 94.2478 42.4155C93.7663 42.8947 93.1645 43.1344 92.4423 43.1344C91.7201 43.1344 91.1182 42.8947 90.6368 42.4155C90.2757 41.9362 90.0349 41.4569 90.0349 40.7381V36.5445ZM100.988 36.5445H101.951V42.056H103.877V43.0146H100.988V36.5445ZM112.423 37.503H110.979V43.0146H110.016V37.503H108.572V36.5445H112.544V37.503H112.423ZM117.84 36.5445H118.803V43.0146H117.84V36.5445ZM126.025 43.0146H125.062V36.1851L129.756 41.0975V36.6643H130.719V43.4938L126.025 38.5814V43.0146ZM140.228 40.4984V39.5399H142.876C142.876 40.6182 142.515 41.5768 141.913 42.1758C141.312 42.7749 140.589 43.0146 139.747 43.0146C138.904 43.0146 138.062 42.7749 137.58 42.1758C136.978 41.5768 136.617 40.7381 136.617 39.7795C136.617 39.3003 136.738 38.821 136.858 38.4616C136.978 37.9823 137.219 37.7427 137.58 37.3832C137.821 37.1436 138.182 36.904 138.663 36.6643C139.145 36.5445 139.506 36.4247 139.987 36.4247C140.589 36.4247 141.191 36.5445 141.673 36.7841C142.154 37.0238 142.515 37.3832 142.756 37.7427L141.913 38.3417C141.673 37.9823 141.432 37.7427 141.071 37.6228C140.71 37.3832 140.349 37.3832 139.867 37.3832C139.145 37.3832 138.663 37.6228 138.182 38.1021C137.941 38.3417 137.821 38.5814 137.701 38.9408C137.58 39.3003 137.46 39.5399 137.46 39.8993C137.46 40.6182 137.701 41.2173 138.182 41.6966C138.543 42.1758 139.145 42.2957 139.747 42.2957C140.349 42.2957 140.83 42.056 141.191 41.6966C141.552 41.3371 141.673 40.9777 141.793 40.6182H140.228V40.4984Z" fill="white"/>
</svg>

<svg width="143" height="52" fill="none" xmlns="http://www.w3.org/2000/svg"><path fill-rule="evenodd" clip-rule="evenodd" d="M45.258 31.032V14.617l10.111 9.705c.602.6 1.204 1.198 1.685 1.917V15.336h2.408v16.415L49.23 21.926c-.601-.6-1.083-1.078-1.564-1.797v11.023h-2.408v-.12zm84.98 0l5.176-8.267-4.574-7.549h2.648l2.287 3.834c.361.48.601 1.079.842 1.558.241-.48.602-1.078.843-1.558l2.407-3.834h2.648l-4.694 7.549 4.935 8.267h-2.889l-2.648-4.433c-.241-.48-.602-1.079-.843-1.558-.24.48-.601 1.078-.842 1.558l-2.769 4.553h-2.527v-.12zm-13.361 0V15.336h8.907v2.157h-6.259v3.954h6.259v2.276h-6.259v5.032h6.259v2.277h-8.907zm-11.555.719L98.22 15.336h2.648l3.611 8.387c.361.839.602 1.678.843 2.516.24-.838.481-1.677.842-2.516l3.491-8.387h2.648l-6.981 16.415zm-21.065-2.996h2.167c2.528 0 4.574-.359 5.537-2.995.24-.719.481-1.677.481-2.636 0-.958-.12-1.917-.481-2.636-1.084-2.756-3.25-2.995-5.898-2.995h-1.806v11.262zm-2.648 2.277V15.336h3.49c3.853 0 7.584.12 9.27 4.194.48 1.078.721 2.396.721 3.714 0 1.438-.24 2.636-.722 3.714-1.685 3.834-4.935 4.194-8.546 4.194H81.61v-.12zm-15.166 0V15.336h8.907v2.157h-6.259v3.954h6.26v2.276h-6.26v5.032h6.26v2.277h-8.908zM30.814 51.88h-1.926V40.498c.241-.24.482-.36.602-.6V24.324c.24-.48.482-.959.602-1.438V0h.602v51.88h.12zM26.24 29.714c.24-.36.482-.599.602-.958V12.22c.24-.599.482-1.198.602-1.797V52h-1.926v-8.986c.24-.12.481-.24.602-.48v-12.82h.12zm-3.13 3.834c.241-.24.482-.479.602-.718V19.41c.241-.48.482-.839.602-1.318V51.88h-1.926v-7.189c.241-.12.482-.24.602-.36V33.549h.12zm-3.25 3.116c.241-.24.482-.36.602-.6V25.042c.241-.359.482-.718.602-1.078V51.88H19.26v-5.75c.24-.12.481-.12.602-.24v-9.225zm-3.129 2.516c.24-.12.482-.36.602-.48v-8.986c.24-.24.481-.599.602-.838V52h-1.926v-4.553c.24-.12.481-.12.602-.24V39.18h.12zm-3.25 2.156c.24-.12.482-.24.602-.479v-7.309c.24-.24.482-.479.602-.718v19.05h-1.926v-3.714c.24 0 .481-.12.602-.12v-6.71h.12zm-3.25 1.918c.241-.12.482-.24.602-.36v-5.99l.602-.6V52H9.629v-2.995c.241 0 .482-.12.602-.12v-5.631zm-3.13 1.557c.241-.12.482-.24.603-.36V39.78c.24-.24.481-.36.601-.6v12.7H6.38v-2.516c.241 0 .482 0 .602-.12v-4.433h.12zm-3.25 1.438c.242-.12.482-.12.603-.24v-3.714c.24-.12.481-.36.601-.48V51.88H3.25v-2.157h.602V46.25zm-3.25 1.198c.242-.12.482-.12.603-.24v-2.875c.24-.12.481-.24.602-.36v7.908H0v-2.037h.602v-2.396zm49.833-10.543v1.198c-.481-.48-1.083-.719-1.805-.719-.723 0-1.325.24-1.686.72-.481.478-.601 1.077-.601 1.796 0 .72.24 1.318.722 1.678.481.479.963.719 1.685.719.602 0 1.203-.24 1.805-.72v1.199c-.602.12-1.203.36-1.925.36-.843 0-1.686-.24-2.287-.84-.723-.598-1.084-1.437-1.084-2.396 0-1.078.361-1.917 1.084-2.516.601-.599 1.324-.839 2.287-.839.722-.12 1.324 0 1.805.36zm6.5.48c.602-.6 1.444-.96 2.407-.96.963 0 1.806.36 2.407.96.602.598.964 1.437.964 2.395 0 .96-.362 1.798-.964 2.397-.601.599-1.444.958-2.407.958-.963 0-1.805-.36-2.407-.958-.602-.6-.963-1.438-.963-2.397 0-.958.361-1.797.963-2.396zm.722 4.073c.482.48.963.719 1.685.719.722 0 1.204-.24 1.685-.72.482-.478.722-1.077.722-1.796 0-.72-.24-1.318-.722-1.797-.481-.48-.963-.72-1.685-.72-.722 0-1.203.24-1.685.72-.481.479-.722 1.078-.722 1.797 0 .838.24 1.438.722 1.797zm11.916 1.558h-.963v-6.83l4.695 4.912v-4.433h.963v6.83l-4.695-4.913v4.434zm14.445-5.512l-.843.48c-.12-.12-.12-.24-.24-.36-.242-.12-.482-.24-.723-.24-.24 0-.481.12-.722.24-.12.12-.24.36-.24.599 0 .36.24.599.721.839l.602.24c.963.359 1.565 1.078 1.565 1.916 0 .6-.24 1.079-.602 1.438-.361.36-.843.6-1.444.6-.602 0-1.084-.24-1.565-.6-.361-.36-.482-.719-.602-1.198l.963-.24c0 .36.12.6.24.839.242.24.482.36.843.36s.602-.12.722-.24c.241-.24.362-.48.362-.839 0-.24-.12-.48-.241-.719-.12-.12-.361-.24-.722-.36l-.602-.239c-.843-.36-1.324-.958-1.324-1.677 0-.48.12-.839.481-1.198.361-.36.843-.48 1.445-.48.481 0 .963.12 1.324.48.24-.12.481.12.602.359zm6.018-.959h.963v3.835c0 .479.12.838.24 1.078a.94.94 0 00.482.48c.24.119.482.239.722.239.241 0 .482-.12.723-.24.24-.12.36-.24.481-.48.12-.239.24-.598.24-1.077v-3.834h.964v4.193c0 .719-.241 1.198-.602 1.678-.482.479-1.084.718-1.806.718s-1.324-.24-1.805-.718c-.361-.48-.602-.96-.602-1.678v-4.194zm10.953 0h.963v5.512h1.926v.959h-2.889v-6.47zm11.435.959h-1.444v5.512h-.963v-5.512h-1.444v-.959h3.972v.959h-.121zm5.417-.959h.963v6.47h-.963v-6.47zm8.185 6.47h-.963v-6.829l4.694 4.912v-4.433h.963v6.83l-4.694-4.913v4.434zm14.203-2.516v-.958h2.648c0 1.078-.361 2.037-.963 2.636-.601.599-1.324.839-2.166.839-.843 0-1.685-.24-2.167-.84-.602-.598-.963-1.437-.963-2.395 0-.48.121-.959.241-1.318.12-.48.361-.72.722-1.079.241-.24.602-.479 1.083-.719.482-.12.843-.24 1.324-.24.602 0 1.204.12 1.686.36.481.24.842.6 1.083.959l-.843.599c-.24-.36-.481-.6-.842-.72-.361-.239-.722-.239-1.204-.239-.722 0-1.204.24-1.685.72-.241.239-.361.478-.481.838-.121.36-.241.599-.241.958 0 .72.241 1.318.722 1.798.361.479.963.599 1.565.599s1.083-.24 1.444-.6c.361-.359.482-.718.602-1.078h-1.565v-.12z" fill="#fff"/></svg>
